X: 256
P: Longways for as many as will
M: C|
L: 1/8
K: Gm
d2 B2 G2 d2 | B3 A G2 Bc | d2 B2 G2 d2 | B3 A G2 (AB) |
(cB) (AG) (^FG) A2 | D2 G4 A2 | B2 d4 g2 | b2 (ag) f2 d2 |\

